images/icons/logo-white.svg

<?xml version="1.0" encoding="UTF-8"?>
<svg width="209px" height="25px" viewBox="0 0 209 25" version="1.1" xmlns="http://www.w3.org/2000/svg" xmlns:xlink="http://www.w3.org/1999/xlink">
    <title>logo-white</title>
    <defs>
        <polygon id="path-1" points="0 0.2202 14.2885 0.2202 14.2885 20 0 20"></polygon>
        <polygon id="path-3" points="0.6955 0.8347 5 0.8347 5 5.1127 0.6955 5.1127"></polygon>
    </defs>
    <g id="desktop" stroke="none" stroke-width="1" fill="none" fill-rule="evenodd">
        <g id="d.-results" transform="translate(-270.000000, -57.000000)">
            <g id="hero">
                <g id="logo-white" transform="translate(270.000000, 57.000000)">
                    <g id="Group-3" transform="translate(0.000000, 4.455500)">
                        <mask id="mask-2" fill="white">
                            <use xlink:href="#path-1"></use>
                        </mask>
                        <g id="Clip-2"></g>
                        <path d="M7.6035,3.2122 C9.0365,3.2122 10.2815,3.9612 10.9555,4.6362 L10.9555,9.6442 C10.2815,10.2962 9.0365,11.0182 7.6035,11.0182 C5.1205,11.0182 3.3855,9.4232 3.3855,7.1412 C3.3855,4.8282 5.1205,3.2122 7.6035,3.2122 L7.6035,3.2122 Z M10.9555,1.4872 C10.1115,0.8362 8.8025,0.2202 6.8685,0.2202 C2.8885,0.2202 -0.0005,3.1312 -0.0005,7.1412 C-0.0005,11.0572 2.9525,14.0102 6.8685,14.0102 C8.4085,14.0102 9.8355,13.5642 10.9555,12.7422 L10.9555,13.5782 C10.9555,16.6502 8.4275,16.9822 7.3415,16.9822 C5.1025,16.9822 3.4485,15.9302 2.9045,15.5842 L2.5525,15.3602 L1.7905,18.4392 L2.2065,18.6552 C3.1005,19.1252 4.7635,20.0002 7.3415,20.0002 C11.6255,20.0002 14.2885,17.3282 14.2885,13.0262 L14.2885,0.4572 L10.9555,0.4572 L10.9555,1.4872 Z" id="Fill-1" fill="#FFFFFF" mask="url(#mask-2)"></path>
                    </g>
                    <path d="M27.9868,4.676 C26.4658,4.676 25.3508,5.268 24.5288,6.528 C24.1088,5.299 23.1538,4.676 21.6818,4.676 C20.4598,4.676 19.1828,5.064 18.7998,5.411 L18.6898,5.511 L18.9278,8.272 L19.3428,8.017 C19.6448,7.832 20.1698,7.615 20.6568,7.615 C21.1648,7.615 21.4598,7.82 21.4598,8.865 L21.4598,19.254 L24.7928,19.254 L24.7868,11.183 C25.2428,8.906 26.1598,7.799 27.5918,7.799 C28.6968,7.799 29.5048,8.153 29.7308,8.502 L30.1288,9.117 L30.7998,5.867 L30.7388,5.766 C30.4068,5.223 29.4278,4.676 27.9868,4.676" id="Fill-4" fill="#FFFFFF"></path>
                    <path d="M37.4214,10.5607 C37.7264,8.9537 39.0164,7.4317 41.3564,7.4317 C43.7494,7.4317 44.6024,8.8237 44.6024,10.1257 C44.6024,10.2477 44.5944,10.3997 44.5804,10.5607 L37.4214,10.5607 Z M47.5274,13.0807 C47.6944,12.5507 47.8304,11.4257 47.8304,10.5727 C47.8304,7.6587 46.1434,4.5447 41.4084,4.5447 C37.0634,4.5447 33.9104,7.7317 33.9104,12.1227 C33.9104,16.8177 36.8014,19.6217 41.6454,19.6217 C43.9144,19.6217 46.0064,18.9357 47.5354,17.6887 L47.7294,17.5307 L46.3654,15.0377 L46.0884,15.2447 C45.5014,15.6857 43.9014,16.7087 41.7244,16.7087 C39.2334,16.7087 37.7324,15.5287 37.3654,13.2897 L47.4614,13.2897 L47.5274,13.0807 Z" id="Fill-6" fill="#FFFFFF"></path>
                    <path d="M55.5713,10.5607 C55.8763,8.9537 57.1663,7.4317 59.5063,7.4317 C61.8993,7.4317 62.7523,8.8237 62.7523,10.1257 C62.7523,10.2477 62.7443,10.3997 62.7303,10.5607 L55.5713,10.5607 Z M65.6773,13.0807 C65.8443,12.5507 65.9803,11.4257 65.9803,10.5727 C65.9803,7.6587 64.2933,4.5447 59.5583,4.5447 C55.2133,4.5447 52.0603,7.7317 52.0603,12.1227 C52.0603,16.8177 54.9513,19.6217 59.7953,19.6217 C62.0643,19.6217 64.1563,18.9357 65.6853,17.6887 L65.8793,17.5307 L64.5153,15.0377 L64.2383,15.2447 C63.6513,15.6857 62.0513,16.7087 59.8743,16.7087 C57.3833,16.7087 55.8823,15.5287 55.5153,13.2897 L65.6113,13.2897 L65.6773,13.0807 Z" id="Fill-8" fill="#FFFFFF"></path>
                    <path d="M86.5103,16.1486 C86.0513,16.4286 85.6063,16.5776 85.2223,16.5776 C84.8043,16.5776 84.4193,16.4256 84.4193,15.3276 L84.4193,11.0456 C84.4193,7.0576 82.3713,4.6756 78.9433,4.6756 C77.1493,4.6756 75.6073,5.3046 74.5143,6.4636 L74.5143,4.9126 L71.1813,4.9126 L71.1813,19.2536 L74.5143,19.2536 L74.5143,10.5146 C74.9603,9.1556 76.2023,7.7986 77.9973,7.7986 C79.9603,7.7986 81.0863,9.1356 81.0863,11.4656 L81.0863,15.9316 C81.0863,18.3106 82.1333,19.5166 84.1973,19.5166 C85.3513,19.5166 86.3983,19.1716 86.9943,18.8496 L87.1663,18.7556 L86.9253,15.8956 L86.5103,16.1486 Z" id="Fill-10" fill="#FFFFFF"></path>
                    <path d="M109.0781,15.5309 C108.4181,16.0099 107.2381,16.5249 106.2071,16.5249 C104.9241,16.5249 104.3011,15.7639 104.3011,14.1979 L104.3011,7.6679 L109.6611,7.6679 L109.6611,4.9129 L104.3011,4.9129 L104.3011,1.4189 L101.3091,1.4189 L100.9941,4.9129 L98.3931,4.9129 L98.3931,7.6679 L100.9681,7.6679 L100.9681,14.7229 C100.9681,17.7689 102.5811,19.5159 105.3931,19.5159 C107.6331,19.5159 109.3011,18.7779 110.3061,18.1579 L110.5241,18.0239 L109.3851,15.3089 L109.0781,15.5309 Z" id="Fill-12" fill="#FFFFFF"></path>
                    <path d="M130.2817,16.1413 C129.7197,16.4513 129.3437,16.5773 128.9817,16.5773 C128.5647,16.5773 128.1787,16.4263 128.1787,15.3283 L128.1787,11.0453 C128.1787,7.0573 126.1317,4.6763 122.7027,4.6763 C120.8897,4.6763 119.3487,5.2933 118.2747,6.4323 L118.2747,0.0003 L114.9417,0.0003 L114.9417,19.2533 L118.2747,19.2533 L118.2747,10.5153 C118.7197,9.1553 119.9627,7.7993 121.7577,7.7993 C123.7197,7.7993 124.8457,9.1353 124.8457,11.4653 L124.8457,15.9323 C124.8457,18.3103 125.8927,19.5163 127.9567,19.5163 C129.1487,19.5163 130.1847,19.1703 130.7587,18.8473 L130.9267,18.7523 L130.6877,15.9183 L130.2817,16.1413 Z" id="Fill-14" fill="#FFFFFF"></path>
                    <path d="M150.2119,16.1452 C149.6949,16.4442 149.2879,16.5772 148.8919,16.5772 C148.5159,16.5772 148.1149,16.4802 148.1149,15.3282 L148.1149,4.9132 L144.7819,4.9132 L144.7819,14.1842 C144.4989,14.7732 143.5209,16.3942 141.3259,16.3942 C139.1609,16.3942 138.2369,15.3122 138.2369,12.7792 L138.2369,4.9132 L134.9039,4.9132 L134.9039,13.1732 C134.9039,17.2042 136.8909,19.5162 140.3539,19.5162 C142.3409,19.5162 143.9529,18.9102 145.0569,17.7542 C145.5019,18.9242 146.4539,19.5162 147.8929,19.5162 C148.8599,19.5162 149.9679,19.2542 150.7159,18.8492 L150.8909,18.7552 L150.6169,15.9102 L150.2119,16.1452 Z" id="Fill-16" fill="#FFFFFF"></path>
                    <path d="M179.8945,16.1452 C179.3995,16.4322 178.9565,16.5772 178.5745,16.5772 C178.1905,16.5772 177.7975,16.4292 177.7975,15.3282 L177.7975,11.0452 C177.7975,6.9982 175.8595,4.6762 172.4795,4.6762 C170.3735,4.6762 168.6035,5.5712 167.5355,7.1532 C166.7165,5.4702 165.1995,4.6502 162.9165,4.6502 C161.1835,4.6502 159.6875,5.2682 158.6195,6.4062 L158.6195,4.9132 L155.2865,4.9132 L155.2865,19.2532 L158.6195,19.2532 L158.6195,10.4102 C158.8385,9.7422 159.6745,7.7992 161.9445,7.7992 C164.3885,7.7992 164.9015,9.7792 164.9015,11.4392 L164.9015,19.2532 L168.2345,19.2532 L168.2345,10.3812 C168.6235,9.1242 169.6745,7.7992 171.4815,7.7992 C174.0765,7.7992 174.4645,10.0962 174.4645,11.4652 L174.4645,15.9322 C174.4645,18.3102 175.5115,19.5162 177.5765,19.5162 C178.5435,19.5162 179.7065,19.2412 180.4035,18.8472 L180.5735,18.7502 L180.2995,15.9102 L179.8945,16.1452 Z" id="Fill-18" fill="#FFFFFF"></path>
                    <path d="M195.6602,12.07 C195.6602,14.735 193.9652,16.525 191.4422,16.525 C189.9902,16.525 188.7382,15.803 188.0642,15.151 L188.0642,9.094 C188.7862,8.389 190.0242,7.668 191.4422,7.668 C193.9652,7.668 195.6602,9.437 195.6602,12.07 M192.1772,4.676 C190.6032,4.676 189.1682,5.134 188.0642,5.977 L188.0642,0 L184.7312,0 L184.7312,19.254 L188.0642,19.254 L188.0642,18.169 C188.9152,18.862 190.2332,19.516 192.1772,19.516 C196.2362,19.516 199.0722,16.454 199.0722,12.07 C199.0722,7.716 196.2362,4.676 192.1772,4.676" id="Fill-20" fill="#FFFFFF"></path>
                    <g id="Group-24" transform="translate(203.000000, 14.455500)">
                        <mask id="mask-4" fill="white">
                            <use xlink:href="#path-3"></use>
                        </mask>
                        <g id="Clip-23"></g>
                        <path d="M2.8345,0.8347 C1.4945,0.8347 0.6955,1.6347 0.6955,2.9747 C0.6955,4.3337 1.4745,5.1127 2.8345,5.1127 C4.2105,5.1127 5.0005,4.3337 5.0005,2.9747 C5.0005,1.6347 4.1905,0.8347 2.8345,0.8347" id="Fill-22" fill="#FFFFFF" mask="url(#mask-4)"></path>
                    </g>
                </g>
            </g>
        </g>
    </g>
</svg>

<svg width="209" height="25" xmlns="http://www.w3.org/2000/svg" xmlns:xlink="http://www.w3.org/1999/xlink"><defs><path id="prefix__a" d="M0 .22h14.289V20H0z"/><path id="prefix__c" d="M.696.835H5v4.278H.696z"/></defs><g fill="none" fill-rule="evenodd"><g transform="translate(0 4.455)"><mask id="prefix__b" fill="#fff"><use xlink:href="#prefix__a"/></mask><path d="M7.604 3.212c1.433 0 2.677.75 3.352 1.424v5.008c-.675.652-1.92 1.374-3.352 1.374-2.484 0-4.218-1.595-4.218-3.877 0-2.313 1.734-3.929 4.218-3.929zm3.352-1.725C10.11.837 8.803.22 6.869.22c-3.98 0-6.87 2.911-6.87 6.921 0 3.916 2.954 6.87 6.87 6.87 1.54 0 2.966-.447 4.087-1.269v.836c0 3.072-2.528 3.404-3.614 3.404-2.24 0-3.893-1.052-4.437-1.398l-.352-.224-.762 3.08.416.215C3.1 19.125 4.763 20 7.341 20c4.284 0 6.947-2.672 6.947-6.974V.457h-3.333v1.03z" fill="#FFF" mask="url(#prefix__b)"/></g><path d="M27.987 4.676c-1.521 0-2.636.592-3.458 1.852-.42-1.229-1.375-1.852-2.847-1.852-1.222 0-2.5.388-2.882.735l-.11.1.238 2.761.415-.255c.302-.185.827-.402 1.314-.402.508 0 .803.205.803 1.25v10.389h3.333l-.006-8.071c.456-2.277 1.373-3.384 2.805-3.384 1.105 0 1.913.354 2.139.703l.398.615.67-3.25-.06-.101c-.332-.543-1.311-1.09-2.752-1.09M37.421 10.56c.305-1.606 1.595-3.128 3.935-3.128 2.393 0 3.246 1.392 3.246 2.694 0 .122-.008.274-.022.435h-7.159zm10.106 2.52c.167-.53.303-1.654.303-2.507 0-2.914-1.687-6.028-6.422-6.028-4.345 0-7.498 3.187-7.498 7.578 0 4.695 2.891 7.499 7.735 7.499 2.27 0 4.361-.686 5.89-1.933l.194-.158-1.364-2.493-.277.207c-.587.44-2.187 1.464-4.364 1.464-2.49 0-3.992-1.18-4.359-3.42h10.096l.066-.208zM55.571 10.56c.305-1.606 1.595-3.128 3.935-3.128 2.393 0 3.246 1.392 3.246 2.694 0 .122-.008.274-.022.435h-7.159zm10.106 2.52c.167-.53.303-1.654.303-2.507 0-2.914-1.687-6.028-6.422-6.028-4.345 0-7.498 3.187-7.498 7.578 0 4.695 2.891 7.499 7.735 7.499 2.27 0 4.361-.686 5.89-1.933l.194-.158-1.364-2.493-.277.207c-.587.44-2.187 1.464-4.364 1.464-2.49 0-3.992-1.18-4.359-3.42h10.096l.066-.208zM86.51 16.149c-.459.28-.904.429-1.288.429-.418 0-.803-.152-.803-1.25v-4.282c0-3.988-2.048-6.37-5.476-6.37-1.794 0-3.336.629-4.429 1.788V4.913h-3.333v14.34h3.333v-8.738c.446-1.36 1.688-2.716 3.483-2.716 1.963 0 3.09 1.337 3.09 3.667v4.466c0 2.379 1.046 3.585 3.11 3.585 1.154 0 2.201-.345 2.797-.667l.172-.094-.24-2.86-.416.253zM109.078 15.53c-.66.48-1.84.995-2.87.995-1.284 0-1.907-.761-1.907-2.327v-6.53h5.36V4.913h-5.36V1.419h-2.992l-.315 3.494h-2.6v2.755h2.574v7.055c0 3.046 1.613 4.793 4.425 4.793 2.24 0 3.908-.738 4.913-1.358l.218-.134-1.139-2.715-.307.222zM130.282 16.141c-.562.31-.938.436-1.3.436-.417 0-.803-.15-.803-1.249v-4.283c0-3.988-2.047-6.369-5.476-6.369-1.813 0-3.354.617-4.428 1.756V0h-3.333v19.253h3.333v-8.738c.445-1.36 1.688-2.716 3.483-2.716 1.962 0 3.088 1.336 3.088 3.666v4.467c0 2.378 1.047 3.584 3.11 3.584 1.193 0 2.229-.346 2.803-.669l.168-.095-.24-2.834-.405.223zM150.212 16.145c-.517.3-.924.432-1.32.432-.376 0-.777-.097-.777-1.249V4.913h-3.333v9.271c-.283.59-1.261 2.21-3.456 2.21-2.165 0-3.09-1.082-3.09-3.615V4.913h-3.332v8.26c0 4.031 1.987 6.343 5.45 6.343 1.987 0 3.599-.606 4.703-1.762.445 1.17 1.397 1.762 2.836 1.762.967 0 2.075-.262 2.823-.667l.175-.094-.274-2.845-.405.235zM179.894 16.145c-.495.287-.938.432-1.32.432-.384 0-.776-.148-.776-1.249v-4.283c0-4.047-1.939-6.369-5.319-6.369-2.106 0-3.876.895-4.944 2.477-.819-1.683-2.335-2.503-4.618-2.503-1.733 0-3.23.618-4.298 1.756V4.913h-3.333v14.34h3.333V10.41c.22-.668 1.055-2.61 3.326-2.61 2.444 0 2.957 1.98 2.957 3.64v7.813h3.333v-8.872c.388-1.257 1.44-2.582 3.246-2.582 2.596 0 2.983 2.297 2.983 3.666v4.467c0 2.378 1.048 3.584 3.113 3.584.966 0 2.13-.275 2.827-.669l.17-.097-.275-2.84-.405.235zM195.66 12.07c0 2.665-1.695 4.455-4.218 4.455-1.452 0-2.704-.722-3.378-1.374V9.094c.722-.705 1.96-1.426 3.378-1.426 2.523 0 4.218 1.769 4.218 4.402m-3.483-7.394c-1.574 0-3.009.458-4.113 1.301V0h-3.333v19.254h3.333v-1.085c.851.693 2.17 1.347 4.113 1.347 4.06 0 6.895-3.062 6.895-7.446 0-4.354-2.836-7.394-6.895-7.394" fill="#FFF"/><g transform="translate(203 14.456)"><mask id="prefix__d" fill="#fff"><use xlink:href="#prefix__c"/></mask><path d="M2.834.835c-1.34 0-2.139.8-2.139 2.14 0 1.359.78 2.138 2.14 2.138C4.21 5.113 5 4.333 5 2.975c0-1.34-.81-2.14-2.166-2.14" fill="#FFF" mask="url(#prefix__d)"/></g></g></svg>
